X: 962
T: Ham Meyvayı Kopardılar Dalından
C: (Anonim)
O: Turkey
F: http://compmusic.upf.edu/node/140
N: acemkurdi--turku--duyek--ham_meyveyi--
N: makam= acemkurdi
N: form= turku
N: usul= duyek = 8/4
M: 8/4
L: 1/16
K: C _B   
Q: 1/4=180
%%MIDI tuningsystem comma53
z4 e2 f2 f2 {g}fe f4  | z2 a4 a2 g2 f2 e2 d2  | \
w:   |   | 
z2 e4 d2 e3d c4  | z4 e2 f2 f2 e2 g2 e2  | 
w:   |   | 
e2 d2 f2 d2 d2 c2 e2 c2  | c2 B4 A2 c4 B2 A2  | \
w:   |   | 
A6 f2 e2 g2 f4  | z4 e2 f2 f2 {g}fe f4  | 
w:   |   | 
z2 a4 a2 g2 f2 e2 d2  | z2 e4 d2 e3d c4  | \
w:   |   | 
z4 e2 f2 f2 e2 g2 e2  | e2 d2 f2 d2 d2 c2 e2 c2  | 
w:   |   | 
c2 B4 A2 c4 B2 A2  | A6 g2 f2 g2 a4  | \
w:   |   | 
z4 a2 a2 a2 a6  | a2 a6 a2 a4 g2  | 
w:  Ham  mey ve yi   |  ko par dı lar   | 
g2 g6 g4 f2 fe  | f4 e2 f2 a2 a6  | g2 f2 e4 f2 e2 d4  | \
w:  da lın dan    |  *  Be ni  a yır  |  dı lar  *  naz *  lı   | 
d2 c6 e4 d2 c2  | 
w:  yâ *  *  rim  | 
c6 g2 f2 g2 a4  | z4 a2 a2 a2 a6  | a2 a6 a2 a4 g2  | \
w:  den   SAZ  |  Ham  mey ve yi   |  ko par dı lar   | 
g2 g6 g4 f2 fe  | 
w:  da lın dan    | 
f4 e2 f2 a2 a6  | g2 f2 e4 f2 e2 d4  | \
w:  *  Be ni  a yır  |  dı lar  *  naz *  lı   | 
d2 c6 e4 d2 c2  | c6 f2 e2 g2 f4  | 
w:  yâ *  *  rim  |  den   SAZ  | 
z4 e2 f2 f2 f4 e2  | z2 a4 a2 g2 f2 e2 d2  | \
w:  E ğer  yâ rim   |  tut maz_ i se   | 
e2 e4 d2 e3d c4  | z4 e2 f2 f2 e2 g2 e2  | 
w:  da lım *  dan    |  O nun_ i çin   | 
e2 d2 f2 d2 d2 c2 e2 c2  | c2 B4 A2 c4 B2 A2  | \
w:  a çık  *  *  gi der   |  göz *  *  *  le  | 
A6 f2 e2 g2 f4  | z4 e2 f2 f2 f4 e2  | 
w:  rim   SAZ  |  E ğer  yâ rim   | 
z2 a4 a2 g2 f2 e2 d2  | e2 e4 d2 e3d c4  | \
w:  tut maz_ i se   |  da lım *  dan    | 
z4 e2 f2 f2 e2 g2 e2  | e2 d2 f2 d2 d2 c2 e2 c2  | 
w:  O nun_ i çin   |  a çık  *  *  gi der   | 
c2 B4 A2 c4 B2 A2  | A12 z4  | z4 e2 f2 f2 {g}fe f4  | \
w:  göz *  *  *  le  |  rim    |   | 
z2 a4 a2 g2 f2 e2 d2  | 
w:   | 
z2 e4 d2 e3d c4  | z4 e2 f2 f2 e2 g2 e2  | \
w:   |   | 
e2 d2 f2 d2 d2 c2 e2 c2  | 
w:   | 
c2 B4 A2 c4 B2 A2  | A6 f2 e2 g2 f4  | \
w:   |   | 
z4 e2 f2 f2 {g}fe f4  | z2 a4 a2 g2 f2 e2 d2  | 
w:   |   | 
z2 e4 d2 e3d c4  | z4 e2 f2 f2 e2 g2 e2  | \
w:   |   | 
e2 d2 f2 d2 d2 c2 e2 c2  | 
w:   | 
c2 B4 A2 c4 B2 A2  | A6 g2 f2 g2 a4  | \
w:   |   | 
z4 a2 a2 a4 a4  | z2 a4 a2 a4 a2 g2  | 
w:  Be nim  yâ rim   |  yay la lar da   | 
g2 g6 g4 f2 fe  | f4 e2 f2 a2 a6  | g2 f2 e4 f2 e2 d4  | \
w:  o tu rur    |  *  Ak_ el le rin   |  so ğuk  *  su ya   | 
d2 c6 e4 d2 c2  | 
w:  ba *  *  tı  | 
c6 g2 f2 g2 a4  | z4 a2 a2 a4 a4  | z2 a4 a2 a4 a2 g2  | \
w:  rır   SAZ  |  Be nim  yâ rim   |  yay la lar da   | 
g2 g6 g4 f2 fe  | 
w:  o tu rur    | 
f4 e2 f2 a2 a6  | g2 f2 e4 f2 e2 d4  | \
w:  *  Ak_ el le rin   |  so ğuk  *  su ya   | 
d2 c6 e4 d2 c2  | c6 f2 e2 g2 f4  | 
w:  ba *  *  tı  |  rır   SAZ  | 
z4 e2 f2 f4 f2 e2  | z2 a4 a2 g2 f2 e2 d2  | \
w:  De me dim  mi   |  naz lı  yâ rim   | 
z2 e4 d2 e3d c4  | z4 e2 f2 f2 e2 g2 e2  | 
w:  ben  sa na    |  Çok  mu hab *  bet   | 
e2 d2 f2 d2 d2 c2 e2 c2  | c2 B4 A2 c4 B2 A2  | \
w:  tez_ ay *  *  rı lık   |  ge *  *  *  ti  | 
A6 f2 e2 g2 f4  | z4 e2 f2 f4 f2 e2  | 
w:  rir   SAZ  |  De me dim  mi   | 
z2 a4 a2 g2 f2 e2 d2  | z2 e4 d2 e3d c4  | \
w:  naz lı  yâ rim   |  ben  sa na    | 
z4 e2 f2 f2 e2 g2 e2  | e2 d2 f2 d2 d2 c2 e2 c2  | 
w:  Çok  mu hab *  bet   |  tez_ ay *  *  rı lık   | 
c2 B4 A2 c4 B2 A2  | A12 z4  | |


